austria/municipalities/70929.svg

<?xml version="1.0" encoding="UTF-8" standalone="no"?>
<svg
   xmlns:dc="http://purl.org/dc/elements/1.1/"
   xmlns:cc="http://creativecommons.org/ns#"
   xmlns:rdf="http://www.w3.org/1999/02/22-rdf-syntax-ns#"
   xmlns:svg="http://www.w3.org/2000/svg"
   xmlns="http://www.w3.org/2000/svg"
   xmlns:sodipodi="http://sodipodi.sourceforge.net/DTD/sodipodi-0.dtd"
   xmlns:inkscape="http://www.inkscape.org/namespaces/inkscape"
   height="555"
   width="470"
   version="1.1"
   id="svg120"
   sodipodi:docname="Wappen at steinberg am rofan.svg"
   inkscape:version="0.92.4 (5da689c313, 2019-01-14)">
  <title
     id="title999">Wappen Steinberg</title>
  <metadata
     id="metadata126">
    <rdf:RDF>
      <cc:Work
         rdf:about="">
        <dc:format>image/svg+xml</dc:format>
        <dc:type
           rdf:resource="http://purl.org/dc/dcmitype/StillImage" />
        <dc:title>Wappen Steinberg</dc:title>
        <dc:contributor>
          <cc:Agent>
            <dc:title>Simon Eller</dc:title>
          </cc:Agent>
        </dc:contributor>
        <dc:publisher>
          <cc:Agent>
            <dc:title>Tirol Wiki</dc:title>
          </cc:Agent>
        </dc:publisher>
        <dc:rights>
          <cc:Agent>
            <dc:title>gemeinfrei</dc:title>
          </cc:Agent>
        </dc:rights>
        <dc:source>http://www.steinberg.tirol.gv.at/</dc:source>
        <dc:date>03.05.2020</dc:date>
      </cc:Work>
    </rdf:RDF>
  </metadata>
  <defs
     id="defs124" />
  <sodipodi:namedview
     pagecolor="#ffffff"
     bordercolor="#666666"
     borderopacity="1"
     objecttolerance="10"
     gridtolerance="10"
     guidetolerance="10"
     inkscape:pageopacity="0"
     inkscape:pageshadow="2"
     inkscape:window-width="1920"
     inkscape:window-height="1017"
     id="namedview122"
     showgrid="false"
     inkscape:zoom="1.2027186"
     inkscape:cx="291.25182"
     inkscape:cy="241.76454"
     inkscape:window-x="-8"
     inkscape:window-y="-8"
     inkscape:window-maximized="1"
     inkscape:current-layer="svg120"
     showguides="true"
     inkscape:guide-bbox="true" />
  <g
     style="stroke:#000000;stroke-linecap:round;stroke-linejoin:round"
     id="g38" />
  <path
     style="fill:#fffffe;fill-opacity:1;stroke:none;stroke-width:1px;stroke-linecap:butt;stroke-linejoin:miter;stroke-opacity:1"
     d="M 465,5 465.48242,120.125 428.42773,68.167969 348.2,184.01781 271.39484,71.148514 195.91033,181.15944 117.44227,65.276136 64.021626,140.93806 50.915847,123.03667 5.0621886,189.31777 5,5 Z"
     id="path997"
     inkscape:connector-curvature="0" />
  <path
     style="fill:#0f47af;fill-opacity:1;stroke:#000000;stroke-width:4;stroke-linecap:butt;stroke-linejoin:miter;stroke-miterlimit:4;stroke-dasharray:none;stroke-opacity:1"
     d="M 5.0621886,189.31777 50.915847,123.03667 64.021626,140.93806 117.44227,65.276136 195.91033,181.15944 174.18871,213.6899 159.01475,195.19015 15.589682,401.38967 4.7033897,350.10859 Z"
     id="path960"
     inkscape:connector-curvature="0"
     sodipodi:nodetypes="cccccccccc" />
  <path
     style="fill:#0a0000;fill-opacity:1;stroke:#000000;stroke-width:4;stroke-linecap:butt;stroke-linejoin:miter;stroke-miterlimit:4;stroke-dasharray:none;stroke-opacity:1"
     d="M 15.589682,401.38967 159.01475,195.19015 174.18871,213.6899 271.39484,71.148514 348.2,184.01781 282.87115,283.64596 267.69719,265.14621 97.255941,507.6353 58.794353,474.04905 Z"
     id="path960-2"
     inkscape:connector-curvature="0"
     sodipodi:nodetypes="cccccccccc" />
  <path
     style="fill:#0f47af;fill-opacity:1;stroke:#000000;stroke-width:4;stroke-linecap:butt;stroke-linejoin:miter;stroke-miterlimit:4;stroke-dasharray:none;stroke-opacity:1"
     d="M 428.42773,68.167969 282.87115,283.64596 267.69719,265.14621 97.255859,507.63477 l 50.978521,28.22461 54.57226,12.91992 48.51367,1.51758 70.84961,-13.63282 68.70703,-38.63281 28.99024,-32.05273 22.50195,-35.37891 19.98828,-50.84961 1.0625,-41.46875 2.0625,-218.15625 z"
     id="path960-0"
     inkscape:connector-curvature="0"
     sodipodi:nodetypes="ccccccccccccccc" />
  <path
     style="fill:none;stroke:#000000;stroke-width:10;stroke-linecap:square;stroke-linejoin:miter;stroke-miterlimit:4;stroke-dasharray:none;stroke-opacity:1"
     inkscape:connector-curvature="0"
     id="path2"
     d="M 5,5 H 465 V 335 C 465,455 365,550 235,550 105,550 5,455 5,335 V 5" />
</svg>

<svg xmlns="http://www.w3.org/2000/svg" height="555" width="470"><path style="fill:#fffffe;fill-opacity:1;stroke:none;stroke-width:1px;stroke-linecap:butt;stroke-linejoin:miter;stroke-opacity:1" d="m465 5 .482 115.125-37.054-51.957-80.228 115.85-76.805-112.87L195.91 181.16 117.442 65.276l-53.42 75.662-13.106-17.901-45.854 66.28L5 5z"/><path style="fill:#0f47af;fill-opacity:1;stroke:#000;stroke-width:4;stroke-linecap:butt;stroke-linejoin:miter;stroke-miterlimit:4;stroke-dasharray:none;stroke-opacity:1" d="m5.062 189.318 45.854-66.281 13.106 17.901 53.42-75.662L195.91 181.16l-21.721 32.53-15.174-18.499L15.59 401.39 4.703 350.109z"/><path style="fill:#0a0000;fill-opacity:1;stroke:#000;stroke-width:4;stroke-linecap:butt;stroke-linejoin:miter;stroke-miterlimit:4;stroke-dasharray:none;stroke-opacity:1" d="m15.59 401.39 143.425-206.2 15.174 18.5 97.206-142.541L348.2 184.018l-65.329 99.628-15.174-18.5-170.441 242.49-38.462-33.587z"/><path style="fill:#0f47af;fill-opacity:1;stroke:#000;stroke-width:4;stroke-linecap:butt;stroke-linejoin:miter;stroke-miterlimit:4;stroke-dasharray:none;stroke-opacity:1" d="M428.428 68.168 282.87 283.646l-15.174-18.5L97.256 507.635l50.978 28.224 54.573 12.92 48.513 1.518 70.85-13.633 68.707-38.633 28.99-32.052 22.502-35.38 19.988-50.849 1.063-41.469 2.062-218.156z"/><path style="fill:none;stroke:#000;stroke-width:10;stroke-linecap:square;stroke-linejoin:miter;stroke-miterlimit:4;stroke-dasharray:none;stroke-opacity:1" d="M5 5h460v330c0 120-100 215-230 215S5 455 5 335V5"/></svg>
